svgs/sharp-regular/down-from-line.svg

<svg xmlns="http://www.w3.org/2000/svg" viewBox="0 0 384 512"><!--! Font Awesome Pro 6.6.0 by @fontawesome - https://fontawesome.com License - https://fontawesome.com/license (Commercial License) Copyright 2024 Fonticons, Inc. --><path d="M224 256l0 48 48 0 28.1 0L192 412.1 83.9 304l28.1 0 48 0 0-48 0-80 64 0 0 80zm1.9 190.1L352 320l0-16 0-48-32 0-16 0-32 0 0-48 0-32 0-48-48 0-64 0-48 0 0 48 0 32 0 48-32 0-16 0-32 0 0 48 0 16L158.1 446.1 192 480l33.9-33.9zM24 80l336 0 24 0 0-48-24 0L24 32 0 32 0 80l24 0z"/></svg>

<svg xmlns="http://www.w3.org/2000/svg" viewBox="0 0 384 512"><!--! Font Awesome Pro 6.4.0 by @fontawesome - https://fontawesome.com License - https://fontawesome.com/license (Commercial License) Copyright 2023 Fonticons, Inc. --><path d="M224 256v48h48 28.1L192 412.1 83.9 304H112h48V256 176h64v80zm1.9 190.1L352 320V304 256H320 304 272V208 176 128H224 160 112v48 32 48H80 64 32v48 16L158.1 446.1 192 480l33.9-33.9zM24 80H360h24V32H360 24 0V80H24z"/></svg>
